X:599
T:Miss Whitefoord
R:Reel
B:The Athole Collection
M:C|
L:1/8
K:B_
d|B2 F>D FGBg|fdcB cGGc|B2 F>D FGBg|f<d c>d B/B/B ~B:|
g|fg/a/ bg fdBd|e>cdB c>BGg|fg/a/ bf gbfd|c>B cd B/B/B ~B>g|
fg/a/ bf gbfd|e>cd>B cBGc|BGFD FGBg|f>dc>d B/B/B ~B||

